src/assets/Imgs/dark/add.svg

<svg fill="none" height="24" viewBox="0 0 24 24" width="24" xmlns="http://www.w3.org/2000/svg"><g stroke="#fff" stroke-miterlimit="10" stroke-width="1.5"><path d="m12.0596 16.5v-5" stroke-linecap="round" stroke-linejoin="round"/><path d="m14.5 14h-5" stroke-linecap="round" stroke-linejoin="round"/><path d="m22 11v6c0 4-1 5-5 5h-10c-4 0-5-1-5-5v-10c0-4 1-5 5-5h1.5c1.5 0 1.83.44 2.4 1.2l1.5 2c.38.5.6.8 1.6.8h3c4 0 5 1 5 5z"/></g></svg>

<svg width="24" height="24" viewBox="0 0 24 24" fill="none" xmlns="http://www.w3.org/2000/svg">
<g id="vuesax/linear/folder-add">
<g id="vuesax/linear/folder-add_2">
<g id="folder-add">
<path id="Vector" d="M12.0596 16.5V11.5" stroke="#fff" stroke-width="1.5" stroke-miterlimit="10" stroke-linecap="round" stroke-linejoin="round"/>
<path id="Vector_2" d="M14.5 14H9.5" stroke="#fff" stroke-width="1.5" stroke-miterlimit="10" stroke-linecap="round" stroke-linejoin="round"/>
<path id="Vector_3" d="M22 11V17C22 21 21 22 17 22H7C3 22 2 21 2 17V7C2 3 3 2 7 2H8.5C10 2 10.33 2.44 10.9 3.2L12.4 5.2C12.78 5.7 13 6 14 6H17C21 6 22 7 22 11Z" stroke="#fff" stroke-width="1.5" stroke-miterlimit="10"/>
</g>
</g>
</g>
</svg>
